!!!SOCIAL_FUNCTION:	war songs
!!!PDT:	1913
!!!OTL: No_85_Around_the_Sky.krn
!!!REG: Great_Lakes
!!!LANG: Non-Tone
!!!LING_GROUP: Algonquin
**kern	**kern
*staff2	*staff1
*clefF4	*clefF4
*k[b-e-a-d-g-c-]	*k[b-e-a-d-g-c-]
*M2/4	*M2/4
4.r	8e-\L
.	8.e-\
.	16e-\Jk
=1	=1
12GG-^/	8e-\L
12r	.
.	8B-\J
12GG-/	.
12GG-^/	4B-\
12r	.
12GG-/	.
=2	=2
2r	8B-\L
.	8e-\J
.	8.e-\L
.	16e-\Jk
=3	=3
2r	8e-\L
.	8B-\J
.	4B-\
=4	=4
2r	8A-\L
.	8B-\J
.	8.B-\L
.	16c-\Jk
=5	=5
2r	8B-\L
.	8A-\J
.	[4A-\
=6	=6
2r	8.A-\L]
.	16B-\Jk
.	8.B-\L
.	16c-\Jk
=7	=7
2r	8B-\L
.	8A-\J
.	4A-\
=8	=8
2r	8G-\L
.	8A-\J
.	8.A-\L
.	16A-\Jk
=9	=9
2r	8G-\L
.	8E-\J
.	[4E-\
=10	=10
2r	8E-\L]
.	8G-\J
.	8.G-\L
.	16A-\Jk
=11	=11
2r	8A-\L
.	8E-\J
.	8E-\L
.	8D-\J
=12	=12
2r	4E-\
.	8E-\L
.	8E-\J
=13	=13
2r	(8.G-\L
.	16E-\Jk)
.	4E-\
=14	=14
2r	4.E-\
.	8E-\
=15||	=15||
*M3/4	*M3/4
2.r	2.E-\
=16||	=16||
*M2/4	*M2/4
2r	8E-\L
.	8B-\J
.	8.B-\L
.	16c-\Jk
=17	=17
2r	8B-\L
.	8A-\J
.	4A-\
=18	=18
2r	8B-\L
.	8B-\J
.	8.B-\L
.	16c-\Jk
=19	=19
2r	8B-\L
.	8A-\J
.	4A-\
=20	=20
2r	8G-\L
.	8A-\J
.	8.A-\L
.	16A-\Jk
=21	=21
2r	8.G-\L
.	16E-\Jk
.	[4E-\
=22	=22
2r	8E-\L]
.	8G-\J
.	8.G-\L
.	16A-\Jk
=23	=23
2r	8.A-\L
.	16E-\Jk
.	8E-\L
.	8D-\J
=24	=24
2r	4E-\
.	8E-\L
.	8E-\J
=25	=25
2r	(8.G-\L
.	16E-\Jk)
.	4E-\
=26	=26
2r	4.E-\
.	8E-\
=27	=27
2r	[2E-\
=28	=28
2r	2E-\]
==	==
*-	*-
